app/assets/svg/veterinary__svg.svg

<svg width="60" height="60" viewBox="0 0 60 60" fill="none" xmlns="http://www.w3.org/2000/svg">
<rect width="60" height="60" rx="30" fill="#FAC663"/>
<path d="M26.4226 24.9065C26.2568 25.2975 26.1739 25.7108 26.1761 26.1349C26.1807 26.987 26.5363 27.7953 27.1776 28.4108C27.8191 29.0264 28.674 29.3797 29.5849 29.4055C30.2959 29.4253 30.9969 29.2429 31.5915 28.8867C32.1564 29.2252 32.8172 29.4071 33.4918 29.4071C33.5271 29.4071 33.5626 29.4066 33.598 29.4056C34.4998 29.38 35.3486 29.0327 35.9882 28.4276C36.6277 27.8225 36.9893 27.0248 37.0062 26.1814C37.0169 25.6539 36.8977 25.1478 36.6522 24.6773C36.4274 24.2466 34.608 22.3809 33.9647 21.697C33.8035 21.5256 34.2363 22.1246 34.0532 22.2752C33.87 22.4259 33.2736 22.1867 33.4347 22.358C34.017 22.9771 35.6709 24.6811 35.8581 25.0396C36.0417 25.3915 36.1308 25.7704 36.1228 26.1659C36.0963 27.4796 34.9755 28.54 33.5712 28.5798C32.9553 28.5977 32.3485 28.4111 31.8644 28.0557C31.7042 27.938 31.4788 27.938 31.3186 28.0557C30.8345 28.4112 30.2278 28.5973 29.6117 28.5798C28.2115 28.5401 27.0667 27.4415 27.0596 26.1308C27.0579 25.8129 27.12 25.5034 27.2439 25.211C27.5305 24.5351 28.1502 23.7709 29.3161 22.6557C30.4114 21.608 32.1819 21.48 33.4347 22.358C33.6299 22.4948 33.9069 22.4578 34.0532 22.2752C34.1995 22.0927 34.1599 21.8338 33.9647 21.697C32.3585 20.5712 30.0884 20.7351 28.6843 22.0781C27.4147 23.2924 26.7595 24.1119 26.4226 24.9065Z" fill="#FFFDFB"/>
<path d="M29.2598 20.7532C30.3952 20.7532 31.3189 19.6476 31.3189 18.2888C31.3189 16.9299 30.3952 15.8242 29.2598 15.8242C28.1244 15.8242 27.2006 16.9298 27.2006 18.2887C27.2006 19.6476 28.1244 20.7532 29.2598 20.7532ZM29.2598 16.6504C29.897 16.6504 30.4353 17.4007 30.4353 18.2887C30.4353 19.1768 29.897 19.927 29.2598 19.927C28.6226 19.927 28.0842 19.1768 28.0842 18.2887C28.0843 17.4007 28.6226 16.6504 29.2598 16.6504Z" fill="#FFFDFB"/>
<path d="M29.2598 16.6504C29.897 16.6504 30.4353 17.4007 30.4353 18.2887C30.4353 19.1768 29.897 19.927 29.2598 19.927C28.6226 19.927 28.0842 19.1768 28.0842 18.2887C28.0843 17.4007 28.6226 16.6504 29.2598 16.6504Z" fill="#FFFDFB"/>
<path d="M25.0409 23.7067C25.9572 23.7067 26.675 22.861 26.675 21.7814C26.675 20.7018 25.9572 19.8561 25.0409 19.8561C24.1246 19.8561 23.4069 20.7018 23.4069 21.7814C23.4069 22.861 24.1246 23.7067 25.0409 23.7067ZM25.0409 20.6823C25.4477 20.6823 25.7914 21.1856 25.7914 21.7814C25.7914 22.3772 25.4477 22.8806 25.0409 22.8806C24.6342 22.8806 24.2905 22.3772 24.2905 21.7814C24.2905 21.1856 24.6341 20.6823 25.0409 20.6823Z" fill="#FFFDFB"/>
<path d="M25.0409 20.6823C25.4477 20.6823 25.7914 21.1856 25.7914 21.7814C25.7914 22.3772 25.4477 22.8806 25.0409 22.8806C24.6342 22.8806 24.2905 22.3772 24.2905 21.7814C24.2905 21.1856 24.6341 20.6823 25.0409 20.6823Z" fill="#FFFDFB"/>
<path d="M37.9739 23.7067C38.8902 23.7067 39.6079 22.861 39.6079 21.7814C39.6079 20.7018 38.8902 19.8561 37.9739 19.8561C37.0576 19.8561 36.3399 20.7018 36.3399 21.7814C36.3399 22.861 37.0576 23.7067 37.9739 23.7067ZM37.9739 20.6823C38.3807 20.6823 38.7243 21.1856 38.7243 21.7814C38.7243 22.3772 38.3807 22.8806 37.9739 22.8806C37.5671 22.8806 37.2235 22.3772 37.2235 21.7814C37.2235 21.1856 37.5671 20.6823 37.9739 20.6823Z" fill="#FFFDFB"/>
<path d="M37.9739 20.6823C38.3807 20.6823 38.7243 21.1856 38.7243 21.7814C38.7243 22.3772 38.3807 22.8806 37.9739 22.8806C37.5671 22.8806 37.2235 22.3772 37.2235 21.7814C37.2235 21.1856 37.5671 20.6823 37.9739 20.6823Z" fill="#FFFDFB"/>
<path d="M34.43 20.7532C35.5654 20.7532 36.4892 19.6476 36.4892 18.2888C36.4892 16.9299 35.5654 15.8242 34.43 15.8242C33.2946 15.8242 32.3709 16.9298 32.3709 18.2887C32.3709 19.6476 33.2946 20.7532 34.43 20.7532ZM34.43 16.6504C35.0672 16.6504 35.6056 17.4007 35.6056 18.2887C35.6056 19.1768 35.0672 19.927 34.43 19.927C33.7928 19.927 33.2545 19.1768 33.2545 18.2887C33.2544 17.4007 33.7927 16.6504 34.43 16.6504Z" fill="#FFFDFB"/>
<path d="M34.43 16.6504C35.0672 16.6504 35.6056 17.4007 35.6056 18.2887C35.6056 19.1768 35.0672 19.927 34.43 19.927C33.7928 19.927 33.2545 19.1768 33.2545 18.2887C33.2544 17.4007 33.7927 16.6504 34.43 16.6504Z" fill="#FFFDFB"/>
<path d="M42.823 28.9704C42.3752 28.5517 41.7797 28.321 41.1463 28.321C40.5129 28.321 39.9174 28.5517 39.4694 28.9704L36.8693 31.4015C36.4352 30.9545 35.8089 30.6733 35.1138 30.6733H31.3894C31.1454 30.6733 31.8556 30.8583 31.8556 31.0864C31.8556 31.3145 31.1454 31.4995 31.3894 31.4995H35.1138C35.9342 31.4995 36.6016 32.1235 36.6016 32.8906C36.6016 33.6576 35.9342 34.2817 35.1138 34.2817H31.3894C31.1454 34.2817 30.9476 34.4666 30.9476 34.6948C30.9476 34.9229 31.1454 35.1078 31.3894 35.1078H35.1138C36.4214 35.1078 37.4852 34.1132 37.4852 32.8906C37.4852 32.6227 37.4341 32.3658 37.3406 32.1278C37.3457 32.1235 37.3509 32.1195 37.3558 32.1149L40.0942 29.5546C40.6743 29.0122 41.6182 29.0122 42.1983 29.5546C42.7784 30.097 42.7784 30.9795 42.1983 31.5219L36.7082 36.655H31.645C31.401 36.655 31.8556 36.8399 31.8556 37.068C31.8556 37.2962 31.6116 37.4811 31.8556 37.4811H36.8913C37.0084 37.4811 37.1208 37.4376 37.2036 37.3601L42.823 32.106C43.7476 31.2417 43.7476 29.835 42.823 28.9704Z" fill="#FFFDFB"/>
<path d="M31.9687 36.6551H29.9574C29.8412 36.6551 29.7297 36.6978 29.647 36.7742L28.2578 38.0571L24.8632 34.8832C24.7982 34.6568 24.7653 34.4229 24.7653 34.1865C24.7653 32.7086 26.0513 31.5062 27.632 31.5062C27.6582 31.5062 27.6837 31.5037 27.7086 31.4996H31.5918C31.8358 31.4996 32.0336 31.3147 32.0336 31.0866C32.0336 30.8584 31.8358 30.6735 31.5918 30.6735H27.2825C27.211 30.6735 27.1438 30.6897 27.084 30.7179C25.313 30.9615 23.9417 32.3665 23.8848 34.0762L23.5277 33.7424C23.3551 33.5811 23.0754 33.5811 22.9029 33.7424L20.5622 35.9309C20.5471 35.945 20.5339 35.9601 20.5215 35.9755L16.6028 40.0745C16.5306 40.15 16.4906 40.2477 16.4904 40.349L16.4835 43.7431C16.483 43.9711 16.6802 44.1563 16.9241 44.1569L24.2046 44.1759H24.2058C24.323 44.1759 24.4353 44.1324 24.5182 44.0549L29.2254 39.6537C29.3083 39.5762 29.3548 39.4711 29.3548 39.3616C29.3548 39.252 29.3083 39.147 29.2254 39.0695L28.8247 38.6949L30.139 37.4812H31.9689C32.2129 37.4812 32.4107 37.2963 32.4107 37.0682C32.4105 36.84 32.2127 36.6551 31.9687 36.6551ZM24.0231 43.3492L17.3678 43.3318L17.3736 40.5077L20.8941 36.8253L25.9474 41.5501L24.0231 43.3492ZM26.5991 40.9407L21.5262 36.1977L23.2152 34.6185L28.2881 39.3615L26.5991 40.9407Z" fill="#FFFDFB"/>
</svg>

<svg width="60" height="60" fill="none" xmlns="http://www.w3.org/2000/svg"><rect width="60" height="60" rx="30" fill="#FAC663"/><path d="M26.423 24.907a3.088 3.088 0 0 0-.247 1.228c.005.852.36 1.66 1.002 2.276a3.611 3.611 0 0 0 2.407.994 3.715 3.715 0 0 0 2.006-.518 3.707 3.707 0 0 0 2.007.519 3.617 3.617 0 0 0 2.39-.978c.64-.605 1.001-1.403 1.018-2.247a3.082 3.082 0 0 0-.354-1.504c-.225-.43-2.044-2.296-2.687-2.98-.162-.171.271.428.088.578-.183.15-.78-.088-.618.083.582.62 2.236 2.323 2.423 2.682.184.352.273.73.265 1.126-.027 1.314-1.148 2.374-2.552 2.414a2.76 2.76 0 0 1-1.707-.524.466.466 0 0 0-.545 0 2.762 2.762 0 0 1-1.707.524c-1.4-.04-2.545-1.138-2.552-2.45-.002-.317.06-.627.184-.919.287-.676.906-1.44 2.072-2.555 1.095-1.048 2.866-1.176 4.119-.298.195.137.472.1.618-.083a.396.396 0 0 0-.088-.578c-1.607-1.126-3.877-.962-5.28.381-1.27 1.214-1.925 2.034-2.262 2.829ZM29.26 20.753c1.135 0 2.059-1.105 2.059-2.464 0-1.36-.924-2.465-2.06-2.465-1.135 0-2.058 1.106-2.058 2.465 0 1.359.923 2.464 2.059 2.464Zm0-4.103c.637 0 1.175.75 1.175 1.639 0 .888-.538 1.638-1.175 1.638s-1.176-.75-1.176-1.638c0-.888.539-1.639 1.176-1.639Z" fill="#FFFDFB"/><path d="M29.26 16.65c.637 0 1.175.75 1.175 1.639 0 .888-.538 1.638-1.175 1.638s-1.176-.75-1.176-1.638c0-.888.539-1.639 1.176-1.639ZM25.04 23.707c.917 0 1.635-.846 1.635-1.926s-.718-1.925-1.634-1.925c-.916 0-1.634.846-1.634 1.925 0 1.08.718 1.926 1.634 1.926Zm0-3.025c.408 0 .751.504.751 1.1 0 .595-.343 1.099-.75 1.099s-.75-.504-.75-1.1c0-.595.343-1.099.75-1.099Z" fill="#FFFDFB"/><path d="M25.04 20.682c.408 0 .751.504.751 1.1 0 .595-.343 1.099-.75 1.099s-.75-.504-.75-1.1c0-.595.343-1.099.75-1.099ZM37.974 23.707c.916 0 1.634-.846 1.634-1.926s-.718-1.925-1.634-1.925c-.916 0-1.634.846-1.634 1.925 0 1.08.718 1.926 1.634 1.926Zm0-3.025c.407 0 .75.504.75 1.1 0 .595-.343 1.099-.75 1.099s-.75-.504-.75-1.1c0-.595.343-1.099.75-1.099Z" fill="#FFFDFB"/><path d="M37.974 20.682c.407 0 .75.504.75 1.1 0 .595-.343 1.099-.75 1.099s-.75-.504-.75-1.1c0-.595.343-1.099.75-1.099ZM34.43 20.753c1.135 0 2.06-1.105 2.06-2.464 0-1.36-.925-2.465-2.06-2.465s-2.06 1.106-2.06 2.465c0 1.359.925 2.464 2.06 2.464Zm0-4.103c.637 0 1.176.75 1.176 1.639 0 .888-.539 1.638-1.176 1.638-.637 0-1.175-.75-1.175-1.638 0-.888.538-1.639 1.175-1.639Z" fill="#FFFDFB"/><path d="M34.43 16.65c.637 0 1.176.75 1.176 1.639 0 .888-.539 1.638-1.176 1.638-.637 0-1.175-.75-1.175-1.638 0-.888.538-1.639 1.175-1.639ZM42.823 28.97a2.441 2.441 0 0 0-1.677-.649c-.633 0-1.229.23-1.677.65l-2.6 2.43a2.442 2.442 0 0 0-1.755-.728h-3.725c-.244 0 .467.185.467.413 0 .229-.71.414-.467.414h3.725c.82 0 1.488.623 1.488 1.39 0 .768-.668 1.392-1.488 1.392h-3.725c-.244 0-.441.185-.441.413 0 .228.197.413.441.413h3.725c1.307 0 2.371-.995 2.371-2.217a2.08 2.08 0 0 0-.144-.763l.015-.013 2.738-2.56a1.564 1.564 0 0 1 2.104 0 1.33 1.33 0 0 1 0 1.967l-5.49 5.133h-5.063c-.244 0 .21.185.21.413 0 .228-.243.413 0 .413h5.036c.117 0 .23-.043.313-.12l5.619-5.255a2.119 2.119 0 0 0 0-3.136Z" fill="#FFFDFB"/><path d="M31.969 36.655h-2.012a.458.458 0 0 0-.31.12l-1.39 1.282-3.394-3.174a2.521 2.521 0 0 1-.098-.697c0-1.477 1.286-2.68 2.867-2.68a.47.47 0 0 0 .077-.006h3.883c.244 0 .442-.185.442-.413 0-.229-.198-.413-.442-.413h-4.31a.464.464 0 0 0-.198.044c-1.771.244-3.142 1.649-3.2 3.358l-.356-.334a.464.464 0 0 0-.625 0l-2.34 2.189a.424.424 0 0 0-.041.044l-3.92 4.1a.398.398 0 0 0-.112.274l-.006 3.394c-.001.228.196.413.44.414l7.28.019h.002c.117 0 .23-.044.312-.121l4.707-4.401a.4.4 0 0 0 .13-.292.4.4 0 0 0-.13-.293l-.4-.374 1.314-1.214h1.83c.244 0 .442-.185.442-.413 0-.228-.198-.413-.442-.413Zm-7.946 6.694-6.655-.017.006-2.824 3.52-3.683 5.053 4.725-1.924 1.8Zm2.576-2.408-5.073-4.743 1.69-1.58 5.072 4.743-1.689 1.58Z" fill="#FFFDFB"/></svg>
